X:179
T:Jig,A. (p)1665.PLFD.179
M:6/4
L:1/4
Q:3/4=90
S:Playford, Dancing Master,2nd Supp. to 3rd Ed.,1665
O:England
H:166
Z:Chris Partington
K:D
d2af2b|ad2c2f|ec2B2A|1A3-A3:|2A3-A2|
|a|a>gab2a|fd2B2f|g>agf>ed|e>fec>BA|
FGABcd|e2ee>fg|afge2d|d3-d3|]
